!!!!SEGMENT: pl-gd--ms-4012--002-001_sokol-andrzej--missa-sicut-caervus-kyrie.krn
!!!OTL: Title
!!!cenid: 16xx:1747
!!!COM: Sokół, Andrzej
!!!COM-rismID: pe30023394
!!!CDT: 1589-1654
!!!CNT: Polish
!!!OPR: Missa sicut caervus
!!!OTL: Kyrie
!!!OMV: 001
!!!PDT:
!!!AGN:
!!!SMS-siglum: PL-GD
!!!SMS-shelfmark: Ms 4012
!!!SMS-variant:
!!!SMS-altvar:
!!!SMS-shelfwork: 002-001 M
!!!NIFC-rismSourceID: 305000370
!!!NIFC-islandoraID: pl-gd:8969
!!!URL-pdf-islandora: https://repozytorium.nifc.pl/islandora/object/pl-gd%3A8969/datastream/PDF/view#page=165
!!!URL-scan: https://polish.musicsources.pl/pl/lokalizacje/galeria/rekopisy/5111 @EN{Scan on Polish Music Herritage in Open Access Website} @PL{Skany w portalu Dziedzictwo Muzyki Polskiej w otwartym dostępie}
!!!ONB-nifc: UWAGA: partia [bassus pro organo], 150v-151r, skan 0165. Części: 1. Kyrie, 2. Et in terra
!!!AIN: 1 organ
!!!key:
**kern
*I"Organo
*I'Org.
*Iorgan
*ICvox
*IG
*clefC3
*k[]
*C:
*M2/1
*met(C|)
=1-
*^
!LO:TX:b:t=Kӱrie	!
1d	1ryy
2a/	2d\
2a/	2A/
=2-	=2-
2a/	2f\
2f/	2d\
*v	*v
2d\
2f\
=3-
*^
2f/	1A
4e/	.
4d/	.
*v	*v
2A/
2D/
*clefF4
=4-
2A\
2AA/
2.BB-X\
4AA\
=5-
2GG/
2GG/
2FF/
1F\
=6-
2BB-X/
2FF/
2F\
=7-
2C/
2GG/
1AA
=8-
1D
2D/
2AA/
!LO:LB:g=original
=9-
2.BB-X/
4AA/
2GG/
2GG/
=10-
2FF/
2C/
2AA/
2FF/
=11-
2.F\
4E\
1D
=12-
1C
1FF
=13-
2FF/
2FF/
1FF
=14-
1FF
4F\
4F\
4D/
4E\
=15-
2AA/
2AA/
4F\
4F\
4D/
4E\
=16-
2AA/
2FF/
2C/
2GG/
=17-
2AA/
2D\
1GG
=18-
1AA
2D/
2D/
=19-
2F\
!LO:SIC:v:t=custos C
2F\
!LO:LB:g=original
1C
=20-
2.E\
4F\
2G\
2GG/
=21-
2BB-X/
2BB-/
1FF
=22-
2.AA/
4BBny/
2C/
2C/
=23-
2GG/
2GG/
2BB-X/
2BB-/
=24-
1FF
2.AA/
4BBny/
=25-
2C/
2C/
1GG
=26-
2D/
2D/
1.GG
=27-
2GG/
1D
=28-
0AA
=29-
0D
=30-
*clefC4
*M2/2
*met(C|)
!LO:TX:b:t=Christe
1D
=31-
*^
1A	2D\
.	2D\
=32-	=32-
2A/	1F
2A/	.
=33-	=33-
1B	1E
=34-	=34-
2B/ [2d	2G\
2B/ 2d]	2G\
=35-	=35-
2A/ 2d	2F#X\
2B-X/ 2d	2G\
*v	*v
4D/
4E/
4Fny/
4G/
=36-
2A\
*clefF4
2AA.
=37-
4BB/
4C/
4D/
=38-
4E\
4F\
2G\
=39-
2D/
2AA/
=40-
1E
=41-
1AA
=42-
2A\
2A\
=43-
1B-X
=44-
*^
2A\	2ryy
2A\	2ryy
=45-	=45-
[2G\	1AA\
2G\]	.
=46-	=46-
1E/	2AA\
.	2AA\
*v	*v
=47-
1BB-X/
2AA/
=48-
2D/
2C/
=49-
2AA/
2C/
=50-
2D/
=51-
1BB-X/
=52-
1AA/
2G\
=53-
2A\
2D/
=54-
2G\
2A\
=55-
2G\
2F\
=56-
2D/
2E\
=57-
2F\
2G\
=58-
2A\
=59-
1D\
*clefC4
2c\
=60-
2A/
2Bny\
=61-
2c\
2d\
=62-
2B-X\
2A/
*clefF4
=63-
2A\
2G\
=64-
2E\
2F.\
=65-
4G\
2A\
=66-
2D/
0E
=67-
0AA
*clefC1
=68-
!LO:TX:b:t=Kӱrie
2.a\
4a\
=69-
2a\
2d/
=70-
*^
2a/	2.d\
2b-X/	.
.	4d\
=71-	=71-
[2b-y/	2d\
4a/	2A\
4g/	.
=72-	=72-
2f/	2d\
2a/	2f\
=73-	=73-
2g/	2e\
2f/	2d\
*v	*v
*clefF4
=74-
2.A\
4A\
=75-
2A\
2D/
=76-
2.D/
4D/
=77-
2D/
2AA/
=78-
2D/
2F\
=79-
2C/
2D/
=80-
1AA
=81-
1D
=82-
2D\
2AA/
=93-
2BBny/
2D/
=94-
1C
=95-
1FF
=96-
2F\
2F\
=97-
2C/
2C/
=98-
1GG
=99-
1D
=100-
2AA/
2AA/
=101-
2D/
4AA/
2FF/
=102-
4FF/
4C/
4D/
=103-
1AA
=104-
2A\
4E\
2C/
=105-
4C/
4G\
4A\
=106-
2.E\
4E\
=107-
4A\
4D/
2E\
=108-
1AA
=109-
2C/
2GG./
=110-
4AA/
4BB/
4C/
=111-
2D/
2BB-X/
=112-
1AA
=113-
2D/
2D/
=114-
2F\
2C./
=115-
4D/
4E\
4F\
=116-
2G\
2D/
=117-
2E\
2F\
=118-
1E
=119-
1AA
=120-
2F\
2D/
=121-
2BB-X/
1GG/
=122-
2D/
=123-
1AA
=124-
2D/
2D/
=125-
0AA
=126-
0
=127-
*-
!!!system-decoration: [(s1)]
!!!ENC: Arek Malec
!!!END: 2022-06-19
!!!ENC: Julita Ruszuk
!!!END: 2022-07-27
